public/latitude-x-logo.svg

<svg fill="none" height="74" viewBox="0 0 308 74" width="308" xmlns="http://www.w3.org/2000/svg"><g fill="#4e9c94"><path d="m3.52996 13.7137h-2.937187v31.4649h17.572127v-2.9292h-14.63494z"/><path d="m48.6172 16.2596h10.1182v29.0024h2.9353v-29.0024h10.1164v-2.9292h-23.1699z"/><path d="m79.7596 12.8165h-2.9354v32.4454h2.9354z"/><path d="m85.1338 16.2596h10.1164v29.0024h2.9353v-29.0024h10.1185v-2.9292h-23.1702z"/><path d="m135.484 32.04c0 5.6294-4.489 10.2092-10.009 10.2092-5.519 0-10.009-4.5798-10.009-10.2092v-18.9257h-2.926v18.9257c0 7.2456 5.803 13.1383 12.939 13.1383 7.135 0 12.941-5.8927 12.941-13.1383v-18.9257h-2.936z"/><path d="m191.581 16.2596v-2.9292h-18.864v31.848h18.864v-2.9291h-15.929v-11.2516h14.051v-2.9291h-14.051v-11.809z"/><path d="m149.597 13.3286h-5.641v31.8498h5.641c4.204-.0448 8.219-1.7423 11.175-4.7239 2.957-2.9817 4.615-7.0067 4.615-11.201s-1.658-8.2193-4.615-11.2009c-2.956-2.9817-6.971-4.6792-11.175-4.724zm0 28.9207h-2.709v-25.9898h2.709c1.711 0 3.404.3362 4.984.9892 1.58.6531 3.016 1.6103 4.225 2.817 1.209 1.2066 2.168 2.6392 2.823 4.2158.654 1.5766.991 3.2664.991 4.9729s-.337 3.3963-.991 4.9729c-.655 1.5767-1.614 3.0092-2.823 4.2159s-2.645 2.1639-4.225 2.8169c-1.58.6531-3.273.9892-4.984.9892z"/><path d="m23.908 45.1784 12.7278-27.0321 13.5886 27.0321h3.2829l-16.9571-33.7365-15.8852 33.7365z"/><path d="m47.9619 60.147h-13.9355v.5024h13.9355z"/><path d="m158.147 60.147h-13.935v.5024h13.935z"/></g><path d="m71.9115 53.8672c1.516-.0007 2.9894.5012 4.1887 1.4268.0485.0363.0891.0821.1193.1346s.0494.1106.0565.1707c.0071.0602.0018.1211-.0154.1791-.0173.0581-.0461.112-.0849.1586-.0335.0494-.0769.0914-.1274.1233-.0506.0319-.1072.053-.1663.062-.0591.0089-.1195.0056-.1772-.0099-.0578-.0154-.1117-.0427-.1584-.08-1.0366-.8135-2.3162-1.2574-3.6349-1.2609-.7595-.0113-1.5137.1275-2.2192.4085-.7054.281-1.3481.6986-1.891 1.2287s-.9753 1.1622-1.2722 1.8598c-.2969.6977-.4525 1.4471-.4577 2.205.0131.7521.1746 1.4943.4752 2.1842.3006.6898.7344 1.3138 1.2768 1.8363.5423.5225 1.1825.9333 1.8839 1.2089s1.4504.4105 2.2042.3972c1.3116.0184 2.5873-.4285 3.5996-1.2609.0493-.037.1057-.0636.1656-.0781.06-.0146.1222-.0167.183-.0064.0608.0104.1189.033.1706.0665.0518.0336.0961.0773.1303.1285.0418.045.0736.0984.0934.1565.0198.0582.0271.1198.0214.181-.0057.0611-.0243.1204-.0545.1739-.0301.0535-.0713.1001-.1207.1367-1.2024.9173-2.6752 1.4119-4.1887 1.4066-1.7631.0269-3.4647-.646-4.7307-1.8707s-1.9928-2.9009-2.0206-4.6602c.0078-.8763.1888-1.7425.5325-2.549s.8434-1.5374 1.4704-2.151c.6271-.6136 1.3692-1.0978 2.184-1.4249s1.6862-.4907 2.5644-.4814z" fill="#f28a3d"/><path d="m91.6464 67.0044h-.0755c-.1113-.0089-.2151-.0593-.2907-.1413-.0757-.082-.1175-.1894-.1171-.3008v-12.0571c.0013-.1168.0484-.2285.1312-.3112.0828-.0826.1947-.1296.3118-.1309h2.4317c1.7211 0 3.3718.6823 4.5888 1.8967s1.9004 2.8615 1.9004 4.579c0 1.7174-.6834 3.3645-1.9004 4.579-1.217 1.2144-2.8677 1.8967-4.5888 1.8967zm2.3914-.9043c1.4808 0 2.9009-.587 3.948-1.6318s1.6353-2.4619 1.6353-3.9396c0-1.4776-.5882-2.8947-1.6353-3.9395-1.0471-1.0449-2.4672-1.6319-3.948-1.6319h-1.9685v11.1428z" fill="#f28a3d"/><path d="m103.573 54.4952c.001-.1152.047-.2254.128-.3077.08-.0824.19-.1305.305-.1344h6.676c.059-.0014.117.0091.171.0308.055.0218.104.0543.145.0956.042.0414.074.0906.096.1449s.032.1124.031.1708c.003.0599-.005.1199-.026.1762s-.053.1077-.095.1511c-.041.0433-.091.0777-.147.1009-.055.0232-.115.0348-.175.034h-6.203v5.1293h5.433c.12 0 .235.0476.32.1324s.133.1998.133.3197-.048.2349-.133.3197-.2.1325-.32.1325h-5.433v5.1092h6.213c.06-.0008.12.0107.175.034.056.0232.106.0575.147.1009.042.0433.074.0948.095.1511s.03.1162.026.1761c.001.0585-.009.1166-.031.1708-.022.0543-.054.1036-.096.1449-.041.0413-.09.0739-.145.0956-.054.0217-.112.0322-.171.0308h-6.686c-.112-.0077-.216-.0578-.292-.14s-.117-.1903-.116-.3021z" fill="#f28a3d"/><path d="m124.582 55.9018-4.153 5.7573c-.04.0625-.095.1139-.16.149-.066.0352-.139.0531-.213.052h-.035c-.077.0054-.154-.0105-.222-.0459-.069-.0355-.126-.0892-.166-.1551l-4.153-5.7372v10.6404c-.012.1124-.065.2164-.149.2919-.085.0756-.194.1174-.307.1174s-.222-.0418-.307-.1174c-.084-.0755-.137-.1795-.149-.2919v-11.9918c0-.0693.017-.1377.049-.1991.033-.0613.08-.1137.138-.1525 0 0 0 0 .035-.0352.1-.066.221-.0914.339-.0708.118.0205.224.0854.295.1813l4.617 6.3802 4.606-6.3802c.07-.0966.175-.1621.293-.1828.117-.0206.238.0053.337.0723.05.042.094.0911.131.1457.043.0736.069.1561.075.2411v11.9918c-.001.1169-.048.2286-.131.3112s-.195.1296-.312.1309c-.059.0014-.117-.0091-.172-.0308-.054-.0216-.104-.0541-.146-.0953-.042-.0413-.075-.0905-.097-.1448s-.034-.1125-.033-.1712z" fill="#f28a3d"/><path d="m133.785 60.7901-4.359-5.918c-.067-.1015-.094-.2235-.077-.3435.016-.12.076-.23.167-.3096.045-.0399.099-.0698.156-.0878.058-.0179.118-.0235.178-.0164s.118.0268.17.0577c.051.031.096.0725.131.1218l4.062 5.5664 4.078-5.5664c.034-.0492.079-.0906.13-.1215s.109-.0506.168-.0577c.06-.0071.12-.0016.177.0164.057.0179.11.0477.155.0875.051.0347.095.0799.128.1327s.055.1119.063.1736c.009.0616.004.1244-.013.1842-.017.0597-.047.1151-.088.1626l-4.339 5.8778v5.8125c.001.0585-.01.1166-.031.1708-.022.0543-.055.1036-.096.1449-.042.0413-.091.0739-.145.0956-.055.0217-.113.0322-.171.0308-.118-.0013-.229-.0483-.312-.1309s-.13-.1943-.132-.3112z" fill="#f28a3d"/><path d="m52.6543 67.0044 5.1503-11.198 5.095 11.198h1.0522l-5.9106-12.9865c-.0203-.045-.0532-.0831-.0947-.1099s-.0899-.0411-.1394-.0411c-.0494 0-.0978.0143-.1393.0411-.0416.0268-.0745.0649-.0948.1099l-5.9558 12.9865z" fill="#f28a3d"/><path d="m78.7231 67.0044 5.1453-11.198 5.0849 11.198h1.0522l-5.9106-12.9865c-.0203-.045-.0532-.0831-.0947-.1099s-.0899-.0411-.1394-.0411c-.0494 0-.0978.0143-.1393.0411-.0416.0268-.0745.0649-.0948.1099l-5.9558 12.9865z" fill="#f28a3d"/><path d="m233.251 22.5427 9.437-9.5192c-2.486-2.4542-5.834-3.84304-9.331-3.87085-3.497-.02782-6.866 1.30765-9.391 3.72195z" fill="#f3954a"/><path d="m239.82 26.5159 22.868-22.81889 41.571 41.48469h3.189l-44.76-44.664366-26.027 25.969466 15.876 16.445h-6.145l-13.016-13.7665-13.796 13.7665h-5.444l16.376-16.3415-11.645-11.6182-30.272 30.2096h3.188l27.084-27.0281 8.457 8.4367-18.631 18.5914h11.821l12.817-12.7877 12.087 12.7877h12.422z" fill="#4e9c94"/></svg>

<svg width="308" height="74" viewBox="0 0 308 74" fill="none" xmlns="http://www.w3.org/2000/svg">
<path d="M3.52996 13.7137H0.592773V45.1786H18.1649V42.2494H3.52996V13.7137Z" fill="#4E9C94"/>
<path d="M48.6172 16.2596H58.7354V45.262H61.6707V16.2596H71.7871V13.3304H48.6172V16.2596Z" fill="#4E9C94"/>
<path d="M79.7596 12.8165H76.8242V45.2619H79.7596V12.8165Z" fill="#4E9C94"/>
<path d="M85.1338 16.2596H95.2502V45.262H98.1855V16.2596H108.304V13.3304H85.1338V16.2596Z" fill="#4E9C94"/>
<path d="M135.484 32.04C135.484 37.6694 130.995 42.2492 125.475 42.2492C119.956 42.2492 115.466 37.6694 115.466 32.04V13.1143H112.54V32.04C112.54 39.2856 118.343 45.1783 125.479 45.1783C132.614 45.1783 138.42 39.2856 138.42 32.04V13.1143H135.484V32.04Z" fill="#4E9C94"/>
<path d="M191.581 16.2596V13.3304H172.717V45.1784H191.581V42.2493H175.652V30.9977H189.703V28.0686H175.652V16.2596H191.581Z" fill="#4E9C94"/>
<path d="M149.597 13.3286H143.956V45.1784H149.597C153.801 45.1336 157.816 43.4361 160.772 40.4545C163.729 37.4728 165.387 33.4478 165.387 29.2535C165.387 25.0592 163.729 21.0342 160.772 18.0526C157.816 15.0709 153.801 13.3734 149.597 13.3286ZM149.597 42.2493H146.888V16.2595H149.597C151.308 16.2595 153.001 16.5957 154.581 17.2487C156.161 17.9018 157.597 18.859 158.806 20.0657C160.015 21.2723 160.974 22.7049 161.629 24.2815C162.283 25.8581 162.62 27.5479 162.62 29.2544C162.62 30.9609 162.283 32.6507 161.629 34.2273C160.974 35.804 160.015 37.2365 158.806 38.4432C157.597 39.6499 156.161 40.6071 154.581 41.2601C153.001 41.9132 151.308 42.2493 149.597 42.2493Z" fill="#4E9C94"/>
<path d="M23.908 45.1784L36.6358 18.1463L50.2244 45.1784H53.5073L36.5502 11.4419L20.665 45.1784H23.908Z" fill="#4E9C94"/>
<path d="M47.9619 60.147H34.0264V60.6494H47.9619V60.147Z" fill="#4E9C94"/>
<path d="M158.147 60.147H144.212V60.6494H158.147V60.147Z" fill="#4E9C94"/>
<path d="M71.9115 53.8672C73.4275 53.8665 74.9009 54.3684 76.1002 55.294C76.1487 55.3303 76.1893 55.3761 76.2195 55.4286C76.2497 55.4811 76.2689 55.5392 76.276 55.5993C76.2831 55.6595 76.2778 55.7204 76.2606 55.7784C76.2433 55.8365 76.2145 55.8904 76.1757 55.937C76.1422 55.9864 76.0988 56.0284 76.0483 56.0603C75.9977 56.0922 75.9411 56.1133 75.882 56.1223C75.8229 56.1312 75.7625 56.1279 75.7048 56.1124C75.647 56.097 75.5931 56.0697 75.5464 56.0324C74.5098 55.2189 73.2302 54.775 71.9115 54.7715C71.152 54.7602 70.3978 54.899 69.6923 55.18C68.9869 55.461 68.3442 55.8786 67.8013 56.4087C67.2584 56.9388 66.826 57.5709 66.5291 58.2685C66.2322 58.9662 66.0766 59.7156 66.0714 60.4735C66.0845 61.2256 66.246 61.9678 66.5466 62.6577C66.8472 63.3475 67.281 63.9715 67.8234 64.494C68.3657 65.0165 69.0059 65.4273 69.7073 65.7029C70.4087 65.9785 71.1577 66.1134 71.9115 66.1001C73.2231 66.1185 74.4988 65.6716 75.5111 64.8392C75.5604 64.8022 75.6168 64.7756 75.6767 64.7611C75.7367 64.7465 75.7989 64.7444 75.8597 64.7547C75.9205 64.7651 75.9786 64.7877 76.0303 64.8212C76.0821 64.8548 76.1264 64.8985 76.1606 64.9497C76.2024 64.9947 76.2342 65.0481 76.254 65.1062C76.2738 65.1644 76.2811 65.226 76.2754 65.2872C76.2697 65.3483 76.2511 65.4076 76.2209 65.4611C76.1908 65.5146 76.1496 65.5612 76.1002 65.5978C74.8978 66.5151 73.425 67.0097 71.9115 67.0044C70.1484 67.0313 68.4468 66.3584 67.1808 65.1337C65.9148 63.909 65.188 62.2328 65.1602 60.4735C65.168 59.5972 65.349 58.731 65.6927 57.9245C66.0364 57.118 66.5361 56.3871 67.1631 55.7735C67.7902 55.1599 68.5323 54.6757 69.3471 54.3486C70.1619 54.0215 71.0333 53.8579 71.9115 53.8672Z" fill="#F28A3D"/>
<path d="M91.6464 67.0044H91.5709C91.4596 66.9955 91.3558 66.9451 91.2802 66.8631C91.2045 66.7811 91.1627 66.6737 91.1631 66.5623V54.5052C91.1644 54.3884 91.2115 54.2767 91.2943 54.194C91.3771 54.1114 91.489 54.0644 91.6061 54.0631H94.0378C95.7589 54.0631 97.4096 54.7454 98.6266 55.9598C99.8436 57.1742 100.527 58.8213 100.527 60.5388C100.527 62.2562 99.8436 63.9033 98.6266 65.1178C97.4096 66.3322 95.7589 67.0145 94.0378 67.0145L91.6464 67.0044ZM94.0378 66.1001C95.5186 66.1001 96.9387 65.5131 97.9858 64.4683C99.0329 63.4235 99.6211 62.0064 99.6211 60.5287C99.6211 59.0511 99.0329 57.634 97.9858 56.5892C96.9387 55.5443 95.5186 54.9573 94.0378 54.9573H92.0693V66.1001H94.0378Z" fill="#F28A3D"/>
<path d="M103.573 54.4952C103.574 54.38 103.62 54.2698 103.701 54.1875C103.781 54.1051 103.891 54.057 104.006 54.0531H110.682C110.741 54.0517 110.799 54.0622 110.853 54.0839C110.908 54.1057 110.957 54.1382 110.998 54.1795C111.04 54.2209 111.072 54.2701 111.094 54.3244C111.116 54.3787 111.126 54.4368 111.125 54.4952C111.128 54.5551 111.12 54.6151 111.099 54.6714C111.078 54.7277 111.046 54.7791 111.004 54.8225C110.963 54.8658 110.913 54.9002 110.857 54.9234C110.802 54.9466 110.742 54.9582 110.682 54.9574H104.479V60.0867H109.912C110.032 60.0867 110.147 60.1343 110.232 60.2191C110.317 60.3039 110.365 60.4189 110.365 60.5388C110.365 60.6587 110.317 60.7737 110.232 60.8585C110.147 60.9433 110.032 60.991 109.912 60.991H104.479V66.1002H110.692C110.752 66.0994 110.812 66.1109 110.867 66.1342C110.923 66.1574 110.973 66.1917 111.014 66.2351C111.056 66.2784 111.088 66.3299 111.109 66.3862C111.13 66.4425 111.139 66.5024 111.135 66.5623C111.136 66.6208 111.126 66.6789 111.104 66.7331C111.082 66.7874 111.05 66.8367 111.008 66.878C110.967 66.9193 110.918 66.9519 110.863 66.9736C110.809 66.9953 110.751 67.0058 110.692 67.0044H104.006C103.894 66.9967 103.79 66.9466 103.714 66.8644C103.638 66.7822 103.597 66.6741 103.598 66.5623L103.573 54.4952Z" fill="#F28A3D"/>
<path d="M124.582 55.9018L120.429 61.6591C120.389 61.7216 120.334 61.773 120.269 61.8081C120.203 61.8433 120.13 61.8612 120.056 61.8601H120.021C119.944 61.8655 119.867 61.8496 119.799 61.8142C119.73 61.7787 119.673 61.725 119.633 61.6591L115.48 55.9219V66.5623C115.468 66.6747 115.415 66.7787 115.331 66.8542C115.246 66.9298 115.137 66.9716 115.024 66.9716C114.911 66.9716 114.802 66.9298 114.717 66.8542C114.633 66.7787 114.58 66.6747 114.568 66.5623V54.5705C114.568 54.5012 114.585 54.4328 114.617 54.3714C114.65 54.3101 114.697 54.2577 114.755 54.2189C114.755 54.2189 114.755 54.2189 114.79 54.1837C114.89 54.1177 115.011 54.0923 115.129 54.1129C115.247 54.1334 115.353 54.1983 115.424 54.2942L120.041 60.6744L124.647 54.2942C124.717 54.1976 124.822 54.1321 124.94 54.1114C125.057 54.0908 125.178 54.1167 125.277 54.1837C125.327 54.2257 125.371 54.2748 125.408 54.3294C125.451 54.403 125.477 54.4855 125.483 54.5705V66.5623C125.482 66.6792 125.435 66.7909 125.352 66.8735C125.269 66.9561 125.157 67.0031 125.04 67.0044C124.981 67.0058 124.923 66.9953 124.868 66.9736C124.814 66.952 124.764 66.9195 124.722 66.8783C124.68 66.837 124.647 66.7878 124.625 66.7335C124.603 66.6792 124.591 66.621 124.592 66.5623L124.582 55.9018Z" fill="#F28A3D"/>
<path d="M133.785 60.7901L129.426 54.8721C129.359 54.7706 129.332 54.6486 129.349 54.5286C129.365 54.4086 129.425 54.2986 129.516 54.219C129.561 54.1791 129.615 54.1492 129.672 54.1312C129.73 54.1133 129.79 54.1077 129.85 54.1148C129.91 54.1219 129.968 54.1416 130.02 54.1725C130.071 54.2035 130.116 54.245 130.151 54.2943L134.213 59.8607L138.291 54.2943C138.325 54.2451 138.37 54.2037 138.421 54.1728C138.472 54.1419 138.53 54.1222 138.589 54.1151C138.649 54.108 138.709 54.1135 138.766 54.1315C138.823 54.1494 138.876 54.1792 138.921 54.219C138.972 54.2537 139.016 54.2989 139.049 54.3517C139.082 54.4045 139.104 54.4636 139.112 54.5253C139.121 54.5869 139.116 54.6497 139.099 54.7095C139.082 54.7692 139.052 54.8246 139.011 54.8721L134.672 60.7499V66.5624C134.673 66.6209 134.662 66.679 134.641 66.7332C134.619 66.7875 134.586 66.8368 134.545 66.8781C134.503 66.9194 134.454 66.952 134.4 66.9737C134.345 66.9954 134.287 67.0059 134.229 67.0045C134.111 67.0032 134 66.9562 133.917 66.8736C133.834 66.791 133.787 66.6793 133.785 66.5624V60.7901Z" fill="#F28A3D"/>
<path d="M52.6543 67.0044L57.8046 55.8064L62.8996 67.0044H63.9518L58.0412 54.0179C58.0209 53.9729 57.988 53.9348 57.9465 53.908C57.905 53.8812 57.8566 53.8669 57.8071 53.8669C57.7577 53.8669 57.7093 53.8812 57.6678 53.908C57.6262 53.9348 57.5933 53.9729 57.573 54.0179L51.6172 67.0044H52.6543Z" fill="#F28A3D"/>
<path d="M78.7231 67.0044L83.8684 55.8064L88.9533 67.0044H90.0055L84.0949 54.0179C84.0746 53.9729 84.0417 53.9348 84.0002 53.908C83.9587 53.8812 83.9103 53.8669 83.8608 53.8669C83.8114 53.8669 83.763 53.8812 83.7215 53.908C83.6799 53.9348 83.647 53.9729 83.6267 54.0179L77.6709 67.0044H78.7231Z" fill="#F28A3D"/>
<path d="M233.251 22.5427L242.688 13.0235C240.202 10.5693 236.854 9.18046 233.357 9.15265C229.86 9.12483 226.491 10.4603 223.966 12.8746L233.251 22.5427Z" fill="#F3954A"/>
<path d="M239.82 26.5159L262.688 3.69701L304.259 45.1817H307.448L262.688 0.517334L236.661 26.4868L252.537 42.9318H246.392L233.376 29.1653L219.58 42.9318H214.136L230.512 26.5903L218.867 14.9721L188.595 45.1817H191.783L218.867 18.1536L227.324 26.5903L208.693 45.1817H220.514L233.331 32.394L245.418 45.1817H257.84L239.82 26.5159Z" fill="#4E9C94"/>
</svg>
